X:142
T:Heathery Cruach
Z: id:dc-reel-130
M:C
L:1/8
K:D Major
Bc|d2AG FDAG|FDAF E2Bc|d2AG FDAG|FGAF Dgfe|!
d2AG FDAG|FDAF E2FG|ABAG FDDE|FGAF D2:|!
ed|cAA2 cAGE|cBcd efed|cAA2 cAAG|EFGE D2ed|!
cAA2 cAGE|cBcd efe2|fded cAAG|EFGE D2:|!

